assets/icons/qvision/restore_page.svg

<svg xmlns="http://www.w3.org/2000/svg" height="24" viewBox="0 0 24 24" width="24"><path d="M0 0h24v24H0z" fill="none"/><path d="M14 2H6c-1.1 0-1.99.9-1.99 2L4 20c0 1.1.89 2 1.99 2H18c1.1 0 2-.9 2-2V8l-6-6zm-2 16c-2.05 0-3.81-1.24-4.58-3h1.71c.63.9 1.68 1.5 2.87 1.5 1.93 0 3.5-1.57 3.5-3.5S13.93 9.5 12 9.5c-1.35 0-2.52.78-3.1 1.9l1.6 1.6h-4V9l1.3 1.3C8.69 8.92 10.23 8 12 8c2.76 0 5 2.24 5 5s-2.24 5-5 5z"/></svg>

<svg width="24" height="24" viewBox="0 0 24 24" fill="none" xmlns="http://www.w3.org/2000/svg">
<g clip-path="url(#clip0_147_4645)">
<path d="M14 2H6C4.9 2 4.01 2.9 4.01 4L4 20C4 21.1 4.89 22 5.99 22H18C19.1 22 20 21.1 20 20V8L14 2ZM12 18C9.95 18 8.19 16.76 7.42 15H9.13C9.76 15.9 10.81 16.5 12 16.5C13.93 16.5 15.5 14.93 15.5 13C15.5 11.07 13.93 9.5 12 9.5C10.65 9.5 9.48 10.28 8.9 11.4L10.5 13H6.5V9L7.8 10.3C8.69 8.92 10.23 8 12 8C14.76 8 17 10.24 17 13C17 15.76 14.76 18 12 18Z" fill="#323232"/>
</g>
<defs>
<clipPath id="clip0_147_4645">
<rect width="24" height="24" fill="white"/>
</clipPath>
</defs>
</svg>
